apps/mobile/assets/icons/phosphor/coffee-fill.svg

<svg
  height="32"
  viewBox="0 0 256 256"
  width="32"
  xmlns="http://www.w3.org/2000/svg"
>
  <path
    d="m208 80h-176a8 8 0 0 0 -8 8v48a96.3 96.3 0 0 0 32.54 72h-24.54a8 8 0 0 0 0 16h176a8 8 0 0 0 0-16h-24.54a96.59 96.59 0 0 0 27-40.09 40 40 0 0 0 37.54-39.91v-8a40 40 0 0 0 -40-40zm24 48a24 24 0 0 1 -17.2 23 95.78 95.78 0 0 0 1.2-15v-38.62a24 24 0 0 1 16 22.62zm-120-72v-32a8 8 0 0 1 16 0v32a8 8 0 0 1 -16 0zm32 0v-32a8 8 0 0 1 16 0v32a8 8 0 0 1 -16 0zm-64 0v-32a8 8 0 0 1 16 0v32a8 8 0 0 1 -16 0z"
  />
</svg>

<svg xmlns="http://www.w3.org/2000/svg" width="32" height="32" fill="#000000" viewBox="0 0 256 256"><path d="M208,80H32a8,8,0,0,0-8,8v48a96.3,96.3,0,0,0,32.54,72H32a8,8,0,0,0,0,16H208a8,8,0,0,0,0-16H183.46a96.59,96.59,0,0,0,27-40.09A40,40,0,0,0,248,128v-8A40,40,0,0,0,208,80Zm24,48a24,24,0,0,1-17.2,23,95.78,95.78,0,0,0,1.2-15V97.38A24,24,0,0,1,232,120ZM112,56V24a8,8,0,0,1,16,0V56a8,8,0,0,1-16,0Zm32,0V24a8,8,0,0,1,16,0V56a8,8,0,0,1-16,0ZM80,56V24a8,8,0,0,1,16,0V56a8,8,0,0,1-16,0Z"></path></svg>
